public/assets/icons/condition_jammed.svg

<?xml version="1.0" standalone="no"?>
<!DOCTYPE svg PUBLIC "-//W3C//DTD SVG 1.1//EN" "http://www.w3.org/Graphics/SVG/1.1/DTD/svg11.dtd" >
<svg xmlns="http://www.w3.org/2000/svg" xmlns:xlink="http://www.w3.org/1999/xlink" version="1.1" viewBox="0 -64 1024 1024" width="512" height="512">
  <g transform="matrix(1 0 0 -1 0 960)">
   <path fill="currentColor"
d="M512 823v-307l-102 -68l102 -375v307l102 68l-102 375v0zM166 690l70 -192l-54 -75l159 -214l-70 193l55 74l-160 214v0zM858 690l-70 -192l-90 -22l-15 -267l70 193l89 21l16 267v0z" />
  </g>

</svg>

<?xml version="1.0" encoding="UTF-8" standalone="no"?>
<svg
   version="1.1"
   viewBox="0 -64 1024 1024"
   width="512"
   height="512"
   id="svg530"
   sodipodi:docname="condition_jammed.svg"
   inkscape:version="1.2.2 (732a01da63, 2022-12-09)"
   xmlns:inkscape="http://www.inkscape.org/namespaces/inkscape"
   xmlns:sodipodi="http://sodipodi.sourceforge.net/DTD/sodipodi-0.dtd"
   xmlns="http://www.w3.org/2000/svg"
   xmlns:svg="http://www.w3.org/2000/svg">
  <defs
     id="defs534" />
  <sodipodi:namedview
     id="namedview532"
     pagecolor="#ffffff"
     bordercolor="#000000"
     borderopacity="0.25"
     inkscape:showpageshadow="2"
     inkscape:pageopacity="0.0"
     inkscape:pagecheckerboard="0"
     inkscape:deskcolor="#d1d1d1"
     showgrid="false"
     inkscape:zoom="1.6191406"
     inkscape:cx="236.23643"
     inkscape:cy="256.30881"
     inkscape:window-width="1920"
     inkscape:window-height="1009"
     inkscape:window-x="-8"
     inkscape:window-y="-8"
     inkscape:window-maximized="1"
     inkscape:current-layer="svg530" />
  <g
     transform="matrix(1,0,0,-1,0,896)"
     id="g528">
    <path
       fill="currentColor"
       d="M 512,823 V 516 L 410,448 512,73 V 380 L 614,448 512,823 Z M 166,690 236,498 182,423 341,209 271,402 326,476 166,690 Z m 692,0 -70,-192 -90,-22 -15,-267 70,193 89,21 16,267 z"
       id="path526" />
  </g>
</svg>
